X:215
T:B215- I loathe that I did love
S:(1st/2)
Q:1/4=120
L:1/4
M:C|
K:C
G|G3/2G/2G^F/2E/2|G2zG|GGcc|B2zG|\
cBA(G|G)DE(F/2G/2|AG2F)|G3(G/2A/2|\
Bc)dG|ccBe|dccB|.c3|]

